static/images/invite/wechat.svg

<svg width="40" height="40" viewBox="0 0 40 40" fill="none" xmlns="http://www.w3.org/2000/svg">
<rect width="40" height="40" rx="20" fill="white" fill-opacity="0.08"/>
<path fill-rule="evenodd" clip-rule="evenodd" d="M31.1764 28.0778C32.9647 26.811 34.1176 24.9223 34.1176 22.8379C34.1176 19.003 30.3059 15.9051 25.6117 15.9051C20.9176 15.9051 17.1059 19.0145 17.1059 22.8379C17.1059 26.6613 20.9176 29.7706 25.6117 29.7706C26.5882 29.7706 27.5176 29.6324 28.3882 29.3906L28.6353 29.3561C28.8 29.3561 28.9411 29.4021 29.0823 29.4827L30.9411 30.5307L31.1059 30.5883C31.2588 30.5883 31.3882 30.4616 31.3882 30.3119L31.3411 30.1046L30.9529 28.6996L30.9294 28.5269C30.9294 28.3426 31.0235 28.1699 31.1647 28.0778H31.1764ZM16.0941 8.23535C10.447 8.23535 5.88232 11.9666 5.88232 16.5616C5.88232 19.0721 7.25879 21.3293 9.41174 22.8494C9.58821 22.9646 9.69409 23.1719 9.69409 23.3907L9.6588 23.598L9.19997 25.2793L9.14115 25.5212C9.14115 25.7054 9.29409 25.8551 9.48232 25.8551L9.68232 25.7976L11.9176 24.5308C12.0823 24.4386 12.2588 24.3811 12.4588 24.3811L12.7647 24.4271C13.8117 24.715 14.9294 24.8878 16.0941 24.8878H16.6588C16.4353 24.2198 16.3176 23.5404 16.3176 22.8379C16.3176 18.646 20.4823 15.2487 25.6235 15.2487H26.1764C25.4 11.2756 21.1764 8.23535 16.0941 8.23535ZM22.7882 21.7208C22.1647 21.7208 21.6588 21.2256 21.6588 20.6153C21.6588 20.0049 22.1647 19.5097 22.7882 19.5097C23.4117 19.5097 23.9176 20.0049 23.9176 20.6153C23.9176 21.2256 23.4117 21.7208 22.7882 21.7208ZM28.4588 21.7208C27.8353 21.7208 27.3294 21.2256 27.3294 20.6153C27.3294 20.0049 27.8353 19.5097 28.4588 19.5097C29.0823 19.5097 29.5882 20.0049 29.5882 20.6153C29.5882 21.2256 29.0823 21.7208 28.4588 21.7208ZM12.6823 15.2257C11.9294 15.2257 11.3176 14.6268 11.3176 13.8898C11.3176 13.1528 11.9294 12.5539 12.6823 12.5539C13.4353 12.5539 14.047 13.1528 14.047 13.8898C14.047 14.6268 13.4353 15.2257 12.6823 15.2257ZM19.4823 15.2257C18.7294 15.2257 18.1176 14.6268 18.1176 13.8898C18.1176 13.1528 18.7294 12.5539 19.4823 12.5539C20.2353 12.5539 20.847 13.1528 20.847 13.8898C20.847 14.6268 20.2353 15.2257 19.4823 15.2257Z" fill="url(#paint0_linear_11686_8012)"/>
<defs>
<linearGradient id="paint0_linear_11686_8012" x1="20" y1="8.23535" x2="20" y2="30.5883" gradientUnits="userSpaceOnUse">
<stop stop-color="#02E26F"/>
<stop offset="1" stop-color="#07C362"/>
</linearGradient>
</defs>
</svg>

<svg xmlns="http://www.w3.org/2000/svg" width="40" height="40" fill="none"><rect width="40" height="40" fill="#fff" fill-opacity=".08" rx="20"/><path fill="url(#a)" fill-rule="evenodd" d="M31.176 28.078c1.789-1.267 2.942-3.156 2.942-5.24 0-3.835-3.812-6.933-8.506-6.933-4.694 0-8.506 3.11-8.506 6.933s3.812 6.933 8.506 6.933c.976 0 1.906-.139 2.776-.38l.247-.035c.165 0 .306.046.447.127l1.86 1.048.164.057a.283.283 0 0 0 .282-.276l-.047-.207-.388-1.405-.024-.173c0-.184.095-.357.236-.45h.011ZM16.094 8.235c-5.647 0-10.212 3.732-10.212 8.327 0 2.51 1.377 4.767 3.53 6.287a.646.646 0 0 1 .282.542l-.035.207-.459 1.681-.059.242c0 .184.153.334.341.334l.2-.057 2.236-1.267c.164-.092.34-.15.54-.15l.307.046a12.55 12.55 0 0 0 3.33.46h.564a6.408 6.408 0 0 1-.341-2.05c0-4.191 4.164-7.588 9.305-7.588h.553c-.776-3.973-5-7.014-10.082-7.014Zm6.694 13.486c-.623 0-1.13-.495-1.13-1.106 0-.61.507-1.105 1.13-1.105.624 0 1.13.495 1.13 1.105s-.506 1.106-1.13 1.106Zm5.67 0c-.623 0-1.129-.495-1.129-1.106 0-.61.506-1.105 1.13-1.105.623 0 1.13.495 1.13 1.105s-.507 1.106-1.13 1.106Zm-15.776-6.495c-.753 0-1.364-.6-1.364-1.336 0-.737.611-1.336 1.364-1.336.753 0 1.365.599 1.365 1.336 0 .737-.612 1.336-1.365 1.336Zm6.8 0c-.753 0-1.364-.6-1.364-1.336 0-.737.611-1.336 1.364-1.336.753 0 1.365.599 1.365 1.336 0 .737-.612 1.336-1.365 1.336Z" clip-rule="evenodd"/><defs><linearGradient id="a" x1="20" x2="20" y1="8.235" y2="30.588" gradientUnits="userSpaceOnUse"><stop stop-color="#02E26F"/><stop offset="1" stop-color="#07C362"/></linearGradient></defs></svg>
